polaris-icons/icons/newicons/Frame 235.svg

<svg width="20" height="20" viewBox="0 0 20 20" fill="none" xmlns="http://www.w3.org/2000/svg">
<path d="M9.52772 3.60869C9.68337 3.16091 10.3166 3.16091 10.4723 3.60869L11.8842 7.6707C11.9529 7.86824 12.1372 8.00217 12.3463 8.00643L16.6458 8.09405C17.1198 8.10371 17.3155 8.70598 16.9377 8.99238L13.5108 11.5905C13.3442 11.7168 13.2738 11.9335 13.3343 12.1337L14.5796 16.2498C14.7169 16.7036 14.2046 17.0758 13.8155 16.805L10.2856 14.3487C10.1139 14.2293 9.88607 14.2293 9.71441 14.3487L6.18453 16.805C5.79541 17.0758 5.28309 16.7036 5.42036 16.2498L6.66566 12.1337C6.72621 11.9335 6.6558 11.7168 6.48915 11.5905L3.06227 8.99238C2.6845 8.70598 2.88019 8.10371 3.35416 8.09405L7.65367 8.00643C7.86276 8.00217 8.0471 7.86823 8.11577 7.6707L9.52772 3.60869Z" stroke="black" stroke-width="1.5"/>
</svg>

<svg viewBox="0 0 20 20" fill="none" xmlns="http://www.w3.org/2000/svg"><path d="M9.528 3.609a.5.5 0 0 1 .944 0l1.412 4.062a.5.5 0 0 0 .462.335l4.3.088a.5.5 0 0 1 .292.898l-3.427 2.598a.5.5 0 0 0-.177.544l1.246 4.116a.5.5 0 0 1-.764.555l-3.53-2.456a.5.5 0 0 0-.572 0l-3.53 2.456a.5.5 0 0 1-.764-.555l1.246-4.116a.5.5 0 0 0-.177-.543l-3.427-2.599a.5.5 0 0 1 .292-.898l4.3-.088a.5.5 0 0 0 .462-.335l1.412-4.062Z" stroke="#000" stroke-width="1.5"/></svg>
